timer-sand.svg

<svg  viewBox="0 0 24 24" fill="currentColor"><path  d="M6,2H18V8H18V8L14,12L18,16V16H18V22H6V16H6V16L10,12L6,8V8H6V2M16,16.5L12,12.5L8,16.5V20H16V16.5M12,11.5L16,7.5V4H8V7.5L12,11.5M10,6H14V6.75L12,8.75L10,6.75V6Z"/></svg>

<svg fill="currentColor" viewBox="0 0 24 24"><path d="M6 2h12v6l-4 4 4 4v6H6v-6l4-4-4-4zm10 14.5-4-4-4 4V20h8zm-4-5 4-4V4H8v3.5zM10 6h4v.75l-2 2-2-2z"/></svg>
